_/img/home-filled.svg

<svg width="20" height="20" viewBox="0 0 20 20" fill="none" xmlns="http://www.w3.org/2000/svg">
<path fill-rule="evenodd" clip-rule="evenodd" d="M2.97744 9.479L2.17035 10.2858C1.9085 10.5476 1.48614 10.5542 1.21626 10.3007C0.933429 10.0351 0.927176 9.5879 1.20247 9.31448L9.28123 1.29049C9.67069 0.903667 10.2992 0.903098 10.6893 1.28922L18.7976 9.31337C19.0737 9.58661 19.0679 10.0344 18.7848 10.3004C18.5153 10.5536 18.0936 10.5475 17.8316 10.2866L17.0571 9.51545V17.5993C17.0571 18.3725 16.4303 18.9993 15.6571 18.9993H11.3509V14.5204H8.6258V18.9993H4.37744C3.60424 18.9993 2.97744 18.3725 2.97744 17.5993V9.479Z" fill="#4070F4"/>
</svg>

<svg width="20" height="20" viewBox="0 0 20 20" fill="none" xmlns="http://www.w3.org/2000/svg"><path fill-rule="evenodd" clip-rule="evenodd" d="M2.977 9.479l-.807.807a.686.686 0 11-.968-.972l8.08-8.024a1 1 0 011.407 0l8.109 8.023a.686.686 0 11-.966.974l-.775-.772V17.6a1.4 1.4 0 01-1.4 1.4h-4.306v-4.48H8.626V19H4.377a1.4 1.4 0 01-1.4-1.4V9.478z" fill="#4070F4"/></svg>
